X: 38302
T: St. Patrick's An Dro
R: polka
M: 2/4
K: Aminor
"Am"A/B/c/B/ Ae|"Am"cA Be|"Dm"d/e/d/c/"G"BA/B/|1 "F"cA/c/B:|2 "G"c/A/B/G/"Am"A2||
"Am"A/B/c/d/e>e|"G"dg "C"ec|1 "F"A/B/c/e/"G" d>e|"Dm"d/e/d/c/ "Em"B2:|2 "F"A/B/c/e/"G" d>B|"Em"c/A/B/G/ "Am"A2||

